X:944033
T:The Sound of Silence 3Voice P3
H: 
B: https://musescore.com/georgewu/ptxsoundofsilence, https://musescore.com/abchords321/scores/5449091
C:Simon and Garfunkel (Pentatonix / disturbed)
O:Transcribed by Kevin Fraser
Z:Kevin Fraser
Q:1/4=90
K:AMix
%K:AMix sound=A_b
%K:{g}B{d}BMix score=_{g}B{e}A %concert Pitch
M:4/4
L:1/8
U: R = ///
U: r = //
I:MIDI=program 110
% I:linebreak $
%%MIDI gracedivider 100
V:M gstem=up stem=down name="Melody" sname=Melody
V:1 gstem=up stem=down name="Chord" sname=Ch
V:2 gstem=up stem=down name="Bass" sname=Bass 
V:3 gstem=up stem=down name="Piper 3" sname=P3 
V:4 gstem=up stem=down name="Piper 4" sname=P4 
V:BB gstem=up stem=down name="Brass Bass" sname="ABCD-C" transpose=-1  octave=-1 clef=bass
V:BC gstem=up stem=down name="Brass Chord" sname="ABCD-D" transpose=-1
V:BD gstem=up stem=down name="Brass Chord 2" sname="ABCD-B" transpose=-1
V:P gstem=up stem=down name="Piano" octave=-1
% %landscape off
%%landscape 
%%score {M 1 2}
% %barsperstaff 4
[V:M]                [| Af                  {g}f{g}f {g}A{d}A {g}B{e}A | {gBd}B8-                                                       | B{g}e                {A}e{G}e {g}G{d}G {g}B{d}B | {gAd}A8-                                  | A2                        {g}A{d}A {g}c{d}c {g}e{G}e | $ 
[V:1]                [| Af                  {g}f{g}f {g}A{d}A {g}B{e}A | {g}a3/2{g}a3/2{f}g3/2{f}g3/2{f}g2                              | {g}e2{ag}a2{f}g2     e2                         | {ag}a3/2{f}g3/2f-fe       {g}f/g/a        | {g}a2{g}ce{gfg}f2{ag}a2                            | $
[V:2]                [| Af                  {g}f{g}f {g}A{d}A {g}B{e}A | {g}e3/2{A}e3/2{g}e3/2{A}e3/2{g}e2                              | {g}G2{d}A2{g}B2{e}G2                            | {g}f3/2{g}e3/2{g}c-cB     {g}c/e/f        | {gfg}f2fG{g}A2{g}c2                                 | $
% %barsperstaff 4
[V:M]                 {g}f2{g}fe-e4-                      | e2              {g}A{d}A {g}c{d}c {g}e{G}e |  {g}f2{g}fe-e2           {g}A{d}A            |  [M:2/4]ce- ef   | [M:4/4]{gfg}f4-f2e2                            |$
[V:1]                 {g}d2{c}d{gcd}c-c4                  | {g}AG           {g}fe {g}A2 {d}c2          |  {gdc}d2{g}dc-c2{g}A{d}A                     | [M:2/4]ce- ed-  | [M:4/4]d4-          d2 c2                      | $
[V:2]                 {g}a2{g}A{d}A-A4                    | {ag}ag          {fg}fe {gfg}f2{ag}a2       |  {gBd}B2{g}B{e}A-        a2{g}A{d}A          | [M:2/4]{g}A4  | [M:4/4]A4-          a2 A2                      |$
% %barsperstaff 4
[V:M]  ff-                               f2 ed- dc-              | c4-                  cA fe-                     | ec-cB/A/-A4-                              | [M:2/4]{g}A{d}A           {g}A{d}A                   | [M:4/4]            {gef}e4 e2- eG   | Af-             f4- fc                     |  cA-                     A2 B2 c2            |] $
[V:1] {g}d{e}d3                         {g}A{d}A- {g}A{d}A-     | {g}A8                                           | {gef}e4f2c2                               | [M:2/4]                   {gcd}c4                    | [M:4/4]            {gde}d4- {gef}e4 | Ac              Ac Ac Ac                   |  f6                      gc                  |] $
[V:2]  {g}A{d}A3                         gf- fe-                 | e8                                              | A3B                       c2 e2-          | [M:2/4]                   {gef}e4                    | [M:4/4]            B4- B4-          | f2              B2 a2 g2                   |  fc                      Bc Bc e2            |] $

W: Use Gracenotes or Strikes to separate repeated notes that don't have gracenote separators.

w:      And in the   naked     light I | saw       | ten thousand    people    maybe | more     |     
w:      people talking    without | speaking     | -  Peo-ple hear-ing with-out  | lis-ten-ing .    Peo-ple      | $


